X: 35372
T: Roslyn Castle
R: reel
M: 4/4
K: Eminor
GF|:E2B>c Bc/B/ AB|c>BAG F2GF|E2e>f g2fe|^def^d B2AB|
c>BAG F2GA|BGFE e2 ef|gef^d eBAB|1 G2 FE E2 GF:|2 G2 FE E3B||
e2ef g2fe|b>aga f2 gf|eBef g2fe|b>aga f2AB|
c>BAG F2GA|BGFE e2 ef|gef^d eBAB|1 G2 FE E3B:|2 GEF^D E4||

